24x24/places/folder-red-gitlab.svg

<svg xmlns="http://www.w3.org/2000/svg" width="24" height="24" version="1">
 <rect style="opacity:0.2" width="20" height="12" x="2" y="9.5" rx="1" ry="1"/>
 <path style="fill:#bf4b4b" d="M 2,17 C 2,17.554 2.446,18 3,18 H 21 C 21.554,18 22,17.554 22,17 V 6 C 22,5.446 21.554,5 21,5 H 12 C 10.5,5 10,3 8.5,3 H 3 C 2.446,3 2,3.446 2,4"/>
 <rect style="opacity:0.2" width="20" height="12" x="2" y="8.5" rx="1" ry="1"/>
 <rect style="fill:#f4f4f7" width="16" height="8" x="4" y="7" rx="1" ry="1"/>
 <rect style="fill:#e25252" width="20" height="12" x="2" y="9" rx="1" ry="1"/>
 <path style="opacity:0.1;fill:#f4f4f7" d="M 3,3 C 2.446,3 2,3.446 2,4 V 4.5 C 2,3.946 2.446,3.5 3,3.5 H 8.5 C 10,3.5 10.5,5.5 12,5.5 H 21 C 21.554,5.5 22,5.946 22,6.5 V 6 C 22,5.446 21.554,5 21,5 H 12 C 10.5,5 10,3 8.5,3 Z"/>
 <path style="fill:#4f1d1d;fill-rule:evenodd" d="m 9.4948225,11.000069 c -0.0611,0 -0.122271,0.0333 -0.145087,0.10002 L 8.4624715,14 H 10.527174 L 9.6399105,11.100089 c -0.02283,-0.06672 -0.08399,-0.10002 -0.145088,-0.10002 z M 10.527174,14 l 1.472822,4 1.472822,-4 z m 2.945644,0 h 2.064704 l -0.887265,-2.899911 c -0.04563,-0.133452 -0.24452,-0.133452 -0.290174,0 z m 2.064704,0 -3.537526,4 3.874203,-2.673905 c 0.1069,-0.07375 0.151685,-0.204444 0.110861,-0.323804 z m -3.537526,4 -3.5375245,-4 -0.447539,1.002291 c -0.04082,0.11936 0.004,0.250052 0.110862,0.323804 z"/>
</svg>

<svg xmlns="http://www.w3.org/2000/svg" width="24" height="24" version="1"><rect style="opacity:.2" width="20" height="12" x="2" y="9.5" rx="1" ry="1"/><path style="fill:#bf4b4b" d="M2 17c0 .554.446 1 1 1h18c.554 0 1-.446 1-1V6c0-.554-.446-1-1-1h-9c-1.5 0-2-2-3.5-2H3c-.554 0-1 .446-1 1"/><rect style="opacity:.2" width="20" height="12" x="2" y="8.5" rx="1" ry="1"/><rect style="fill:#f4f4f7" width="16" height="8" x="4" y="7" rx="1" ry="1"/><rect style="fill:#e25252" width="20" height="12" x="2" y="9" rx="1" ry="1"/><path style="opacity:.1;fill:#f4f4f7" d="M3 3c-.554 0-1 .446-1 1v.5c0-.554.446-1 1-1h5.5c1.5 0 2 2 3.5 2h9c.554 0 1 .446 1 1V6c0-.554-.446-1-1-1h-9c-1.5 0-2-2-3.5-2z"/><path style="fill:#4f1d1d;fill-rule:evenodd" d="M9.495 11a.15.15 0 0 0-.145.1L8.462 14h2.065l-.887-2.9a.15.15 0 0 0-.145-.1zm1.032 3L12 18l1.473-4zm2.946 0h2.065l-.888-2.9c-.045-.133-.244-.133-.29 0zm2.065 0L12 18l3.874-2.674a.282.282 0 0 0 .111-.324zM12 18l-3.538-4-.447 1.002c-.04.12.004.25.11.324z"/></svg>
